images/linkedin.svg

<svg width="20" height="21" viewBox="0 0 20 21" fill="none" xmlns="http://www.w3.org/2000/svg">
<path d="M13.4782 6.86133C14.7754 6.86133 16.0196 7.37666 16.9369 8.29395C17.8542 9.21124 18.3695 10.4554 18.3695 11.7526V17.4592H15.1087V11.7526C15.1087 11.3202 14.9369 10.9055 14.6311 10.5998C14.3253 10.2939 13.9107 10.1222 13.4782 10.1222C13.0458 10.1222 12.6311 10.2939 12.3253 10.5998C12.0195 10.9055 11.8478 11.3202 11.8478 11.7526V17.4592H8.58691V11.7526C8.58691 10.4554 9.10222 9.21124 10.0195 8.29395C10.9368 7.37666 12.181 6.86133 13.4782 6.86133Z" fill="white" stroke="white" stroke-width="1.30435" stroke-linecap="round" stroke-linejoin="round"/>
<path d="M5.32606 7.67578H2.06519V17.4584H5.32606V7.67578Z" fill="white" stroke="white" stroke-width="1.30435" stroke-linecap="round" stroke-linejoin="round"/>
<path d="M3.69562 5.22962C4.59608 5.22962 5.32606 4.49965 5.32606 3.59918C5.32606 2.69872 4.59608 1.96875 3.69562 1.96875C2.79516 1.96875 2.06519 2.69872 2.06519 3.59918C2.06519 4.49965 2.79516 5.22962 3.69562 5.22962Z" fill="white" stroke="white" stroke-width="1.30435" stroke-linecap="round" stroke-linejoin="round"/>
</svg>

<svg width="20" height="21" fill="none" xmlns="http://www.w3.org/2000/svg"><path d="M13.478 6.861a4.891 4.891 0 014.891 4.892v5.706h-3.26v-5.706a1.63 1.63 0 10-3.261 0v5.706H8.587v-5.706a4.891 4.891 0 014.891-4.892zm-8.152.815h-3.26v9.782h3.26V7.676zM3.696 5.23a1.63 1.63 0 100-3.261 1.63 1.63 0 000 3.26z" fill="#fff" stroke="#fff" stroke-width="1.304" stroke-linecap="round" stroke-linejoin="round"/></svg>
